static/dist/images/icons/news.svg

<svg xmlns="http://www.w3.org/2000/svg" viewBox="0 0 20 20"><path fill-rule="evenodd" clip-rule="evenodd" d="M14 5h-4v2h4V5zm0 3h-4v1h4V8zM9 5H6v4h3V5zm0 6h5v-1H9v1zm3 2h2v-1h-2v1zm2 1H6v1h8v-1zm-3-2H6v1h5v-1zm-3-2H6v1h2v-1zm9-9H3a1 1 0 0 0-1 1v16a1 1 0 0 0 1 1h14a1 1 0 0 0 1-1V2a1 1 0 0 0-1-1zm-1 16H4V3h12v14z"/></svg>

<?xml version="1.0" encoding="utf-8"?>
<!-- Generator: Adobe Illustrator 18.1.0, SVG Export Plug-In . SVG Version: 6.00 Build 0)  -->
<!DOCTYPE svg PUBLIC "-//W3C//DTD SVG 1.1//EN" "http://www.w3.org/Graphics/SVG/1.1/DTD/svg11.dtd">
<svg version="1.1" id="News" xmlns="http://www.w3.org/2000/svg" xmlns:xlink="http://www.w3.org/1999/xlink" x="0px" y="0px"
	 viewBox="0 0 20 20" enable-background="new 0 0 20 20" xml:space="preserve">
<path fill-rule="evenodd" clip-rule="evenodd" d="M14,5h-4v2h4V5z M14,8h-4v1h4V8z M9,5H6v4h3V5z M9,11h5v-1H9V11z M12,13h2v-1h-2
	V13z M14,14H6v1h8V14z M11,12H6v1h5V12z M8,10H6v1h2V10z M17,1H3C2.447,1,2,1.447,2,2v16c0,0.552,0.447,1,1,1h14
	c0.553,0,1-0.448,1-1V2C18,1.448,17.553,1,17,1z M16,17H4V3h12V17z"/>
</svg>
